source/img/icon_email.svg

<svg width="28" height="19" viewBox="0 0 28 19" fill="none" xmlns="http://www.w3.org/2000/svg">
<path fill-rule="evenodd" clip-rule="evenodd" d="M24.5439 15.5047L18.0001 9.5111L24.5439 3.5175L23.6516 2.56398L14.1334 11.2819L4.61517 2.56398L3.72284 3.5175L10.2666 9.5111L3.72284 15.5047L4.61517 16.4582L11.2333 10.3965L14.1334 13.0528L17.0334 10.3965L23.6516 16.4582L24.5439 15.5047ZM2.53704 0.0666504C1.31453 0.0666504 0.323486 1.12267 0.323486 2.42075V16.6014C0.323486 17.9016 1.30649 18.9555 2.53704 18.9555H25.7297C26.9522 18.9555 27.9432 17.8995 27.9432 16.6014V2.42075C27.9432 1.12062 26.9602 0.0666504 25.7297 0.0666504H2.53704Z" fill="#FFD74B"/>
</svg>

<svg width="28" height="19" fill="none" xmlns="http://www.w3.org/2000/svg"><path fill-rule="evenodd" clip-rule="evenodd" d="M24.54 15.5L18 9.51l6.54-6-.89-.95-9.52 8.72-9.51-8.72-.9.96 6.55 6-6.55 5.98.9.96 6.61-6.06 2.9 2.65 2.9-2.65 6.62 6.06.9-.96zM2.54.07C1.3.07.32 1.12.32 2.42V16.6c0 1.3.99 2.36 2.22 2.36h23.19c1.22 0 2.21-1.06 2.21-2.36V2.42c0-1.3-.98-2.35-2.21-2.35H2.53z" fill="#FFD74B"/></svg>
